build/payment/PayPalS.svg

<svg xmlns="http://www.w3.org/2000/svg" fill="none" viewBox="0 0 22 10" focusable="false"><path fill="none" d="M0 0H22V10H0z"/><path d="M0 0H22V10H0z"/><path fill="#252629" fill-rule="evenodd" d="M9.6034 2.75027C9.76743 2.5516 9.87817 2.27535 9.84767 2C9.61138 2.00949 9.32537 2.15752 9.15571 2.35619C9.00382 2.53178 8.87059 2.81305 8.90669 3.0828C9.17022 3.10323 9.43935 2.94866 9.6034 2.75027ZM14.3042 2.68926Q13.9864 2.58735 13.569 2.58735L12.2856 2.58735L12.2856 7.04603L13.1703 7.04603L13.1703 5.45364L13.569 5.45364Q14.4537 5.45364 14.8525 5.08421C15.1183 4.83792 15.2512 4.48335 15.2512 4.02049Q15.2512 3.69565 15.1453 3.4345C15.0747 3.25615 14.9688 3.1054 14.8275 2.98226Q14.6219 2.79117 14.3042 2.68926ZM10.7002 3.60378C10.6574 3.62992 10.1895 3.91574 10.1947 4.49623C10.2013 5.20713 10.8183 5.4437 10.8254 5.44666C10.8201 5.46354 10.7265 5.7839 10.5003 6.11492C10.3043 6.40094 10.1012 6.68607 9.78111 6.69229C9.62737 6.69504 9.52457 6.65053 9.41773 6.60427C9.30584 6.55582 9.18953 6.50546 9.00566 6.50546C8.64621 6.50546 8.5337 6.68607 8.23583 6.69792C7.92672 6.70976 7.69163 6.38851 7.49414 6.10338C7.09087 5.52009 6.78235 4.45507 7.19657 3.73647C7.40206 3.37939 7.7695 3.15348 8.16862 3.14756C8.34057 3.1442 8.50718 3.21026 8.65302 3.26808C8.76433 3.31222 8.86354 3.35156 8.94378 3.35156C9.01577 3.35156 9.11232 3.3135 9.22493 3.26912C9.40224 3.19924 9.61935 3.11367 9.84299 3.1363C9.99636 3.14282 10.4263 3.19819 10.7025 3.60234L10.7002 3.60378ZM14.1373 4.5623Q13.9505 4.75299 13.569 4.75299L13.1703 4.75299L13.1703 3.288L13.569 3.288Q13.9505 3.288 14.1373 3.47869Q14.3167 3.66174 14.3167 4.02049Q14.3167 4.37925 14.1373 4.5623ZM15.5994 3.91221C15.7946 3.83153 15.9856 3.77633 16.1725 3.7466C16.3595 3.71263 16.563 3.69565 16.7831 3.69565C17.1112 3.69565 17.3688 3.73811 17.5557 3.82304C17.7467 3.90797 17.89 4.01413 17.9856 4.14152C18.0811 4.26891 18.1413 4.40691 18.1662 4.55554C18.1953 4.70416 18.2098 4.84004 18.2098 4.96319L18.2098 7.04603L17.3812 7.04603L17.3812 6.56195L17.3688 6.56195C17.3521 6.59592 17.3231 6.64475 17.2815 6.70845C17.24 6.76789 17.1798 6.82734 17.1009 6.88679C17.0219 6.942 16.9223 6.99083 16.8018 7.03329C16.6814 7.07576 16.5339 7.09699 16.3595 7.09699Q16.0542 7.09699 15.8361 7.01418C15.6907 6.95473 15.5724 6.8783 15.481 6.78488Q15.3911 6.69298 15.3307 6.58464Q15.299 6.52779 15.2754 6.4664C15.2338 6.34326 15.2131 6.21799 15.2131 6.0906Q15.2131 5.91862 15.2692 5.72753C15.3065 5.60014 15.3834 5.48337 15.4997 5.37721C15.616 5.2668 15.778 5.17763 15.9856 5.10969C16.1933 5.0375 16.4695 5.00141 16.8143 5.00141C16.8932 5.00141 16.9721 5.00353 17.051 5.00778L17.3625 5.00778L17.3625 4.86765C17.3625 4.77847 17.3418 4.69779 17.3002 4.6256C17.2628 4.55341 17.2109 4.49396 17.1445 4.44725C17.078 4.40054 16.9991 4.36445 16.9077 4.33897C16.8205 4.31349 16.7291 4.30076 16.6336 4.30076C16.4924 4.30076 16.3387 4.31986 16.1725 4.35808C16.0064 4.39205 15.8153 4.47061 15.5994 4.59375L15.5994 3.91221ZM18.961 8.42823C19.0483 8.44946 19.1313 8.46007 19.2102 8.46007C19.4345 8.46007 19.6214 8.43035 19.771 8.3709C19.9205 8.31145 20.043 8.23289 20.1386 8.13523C20.2341 8.04181 20.3109 7.93352 20.3691 7.81038C20.4314 7.69148 20.4854 7.57046 20.5311 7.44731L21.8955 3.7466L21.0357 3.7466L20.4501 5.54282L20.2507 6.19888L20.2196 6.19888L20.0389 5.5683L19.4345 3.7466L18.5 3.7466L19.771 7.23075L19.6962 7.42183C19.6381 7.56621 19.5612 7.66388 19.4657 7.71484C19.3743 7.76579 19.2559 7.79127 19.1106 7.79127C19.015 7.79127 18.9382 7.78065 18.88 7.75942C18.8219 7.74244 18.7679 7.72333 18.7181 7.7021L18.7181 8.36453C18.7928 8.39001 18.8738 8.41124 18.961 8.42823ZM17.2192 5.54919Q17.0448 5.54919 16.8392 5.56193C16.7063 5.56617 16.5817 5.58528 16.4654 5.61925C16.3532 5.65322 16.2598 5.7063 16.185 5.77849Q16.1691 5.79387 16.1554 5.81104L16.1554 5.81111Q16.0729 5.91487 16.0729 6.08423C16.0729 6.20313 16.1123 6.30504 16.1912 6.38997C16.2702 6.47065 16.4031 6.51099 16.59 6.51099C16.6772 6.51099 16.7665 6.49825 16.8579 6.47277C16.9493 6.44729 17.0323 6.40271 17.1071 6.33901C17.1819 6.27532 17.2421 6.18614 17.2878 6.07149Q17.3625 5.89951 17.3625 5.63199L17.3625 5.54919L17.2192 5.54919Z"/></svg>

<svg xmlns="http://www.w3.org/2000/svg" fill="none" viewBox="0 0 22 10" focusable="false"><path fill="none" d="M0 0h22v10H0z"/><path fill="#23262D" fill-rule="evenodd" d="M9.6 2.75c.16-.2.27-.48.24-.75-.23 0-.52.15-.69.35-.15.18-.28.46-.25.73.27.02.53-.14.7-.33m4.7-.07q-.32-.1-.74-.1h-1.28v4.46h.89V5.45h.39q.89 0 1.29-.37c.26-.25.4-.6.4-1.06q0-.33-.11-.59c-.07-.18-.18-.33-.32-.45q-.2-.19-.52-.3m-4.11 1.81c-.01-.58.46-.87.51-.89-.28-.41-.71-.46-.86-.47-.23-.02-.44.06-.62.13-.11.05-.21.09-.28.09a.8.8 0 0 1-.29-.09c-.15-.05-.31-.12-.49-.12-.4.01-.76.23-.97.59-.41.72-.1 1.79.3 2.37.2.28.43.6.74.59.3-.01.41-.19.77-.19.18 0 .3.05.41.1s.21.09.37.09c.32-.01.52-.29.72-.58.22-.33.32-.65.32-.67-.01 0-.62-.24-.63-.95m3.94.07q-.18.19-.57.19h-.39V3.28h.39q.39 0 .57.19t.18.55q0 .35-.18.54m1.46-.65c.2-.08.39-.14.58-.17.18-.03.39-.05.61-.05.33 0 .58.04.77.13.19.08.34.19.43.32.1.12.16.26.18.41.03.15.04.29.04.41v2.08h-.82v-.48h-.02a.8.8 0 0 1-.08.14c-.04.06-.11.12-.18.18q-.12.09-.3.15t-.45.06q-.3 0-.52-.08a1.1 1.1 0 0 1-.35-.23q-.09-.09-.15-.2-.04-.06-.06-.12c-.04-.12-.06-.25-.06-.37q0-.18.05-.37c.04-.12.12-.24.23-.35.12-.11.28-.2.49-.27s.48-.1.83-.1h.55v-.14q0-.135-.06-.24a.55.55 0 0 0-.16-.18c-.07-.04-.15-.08-.24-.11-.08-.02-.18-.03-.27-.03-.14 0-.3.01-.46.05-.17.04-.36.12-.58.24zm3.37 4.51c.08.02.17.04.25.04.22 0 .41-.03.56-.09q.225-.09.36-.24c.1-.09.18-.2.23-.32.07-.12.12-.24.17-.37l1.36-3.7h-.86l-.58 1.8-.2.65h-.04l-.18-.63-.6-1.82h-.93l1.27 3.49-.08.19c-.06.14-.13.24-.23.29-.09.05-.21.08-.35.08-.1 0-.18-.01-.24-.04a1 1 0 0 1-.16-.05v.66c.08.03.16.05.25.06m-1.75-2.88q-.17 0-.38.02c-.13 0-.25.02-.37.05-.11.04-.21.09-.28.16q-.02.02-.03.04-.08.1-.08.27 0 .18.12.3c.08.09.21.13.4.13.08 0 .17-.02.26-.04.09-.03.18-.07.25-.14.08-.06.14-.15.18-.26q.08-.18.08-.44v-.09z"/></svg>
